X: 52
M: C|
L: 1/8
K: D
vAF |\
{G}F2 ED e3d | {de}f2 e>d dcBA | {c}B3A F>EFA | B>c Tc2 {Bc}d2 A>G |
e>d |\
dcB>AA2 f2 | {ga}e<cTB>c A2 E>G | A3 B A>BAF | A3 B/c/ {e}d3c | B>Acd {c}B2AF |


